dist/images/about-article.svg

<svg width="32" height="32" viewBox="0 0 32 32" fill="none" xmlns="http://www.w3.org/2000/svg">
<path opacity="0.36" d="M16.2811 27.9964C18.4751 27.9454 20.6131 27.2939 22.4626 26.1125C24.3121 24.9312 25.8023 23.2654 26.7711 21.2962L26.7708 21.2961L19.9851 17.1226C19.8661 17.0494 19.7332 17.002 19.5948 16.9833L16.7424 16.5988C16.5282 16.5699 16.3105 16.6112 16.1217 16.7165C15.933 16.8218 15.7834 16.9854 15.6954 17.1828L13.9831 21.0251C13.9035 21.2038 13.878 21.4019 13.9098 21.5949C13.9417 21.7879 14.0294 21.9673 14.1622 22.111L16.5122 24.6528C16.6187 24.7681 16.6967 24.9067 16.7397 25.0577C16.7827 25.2086 16.7895 25.3675 16.7597 25.5216L16.2811 27.9961L16.2811 27.9964Z" fill="url(#paint0_linear_931_1702)"/>
<path opacity="0.36" d="M8.11888 6.9508L7.00085 9.59451C6.90116 9.83024 6.89565 10.0952 6.98545 10.3349L8.42181 14.1684C8.48062 14.3254 8.57797 14.4651 8.70488 14.5746C8.83179 14.6841 8.9842 14.76 9.1481 14.7952L9.82598 14.9409L10.8669 12.4699C10.9433 12.2885 11.0714 12.1338 11.2354 12.0249C11.3993 11.9161 11.5917 11.8581 11.7885 11.8581H14.4566C14.6257 11.8581 14.792 11.8152 14.94 11.7335L16.4703 10.8884C16.5376 10.8512 16.6005 10.8063 16.6576 10.7547L20.0215 7.71251C20.1893 7.56075 20.3007 7.35656 20.3374 7.1333C20.3742 6.91005 20.3341 6.68093 20.2238 6.48337L19.0571 4.39357L19.0573 4.39299C17.1636 3.89655 15.1772 3.87005 13.2709 4.31577C11.3646 4.7615 9.596 5.66597 8.11871 6.9506L8.11888 6.9508Z" fill="url(#paint1_linear_931_1702)"/>
<path fill-rule="evenodd" clip-rule="evenodd" d="M16 5C9.92487 5 5 9.92487 5 16C5 22.0751 9.92487 27 16 27C22.0751 27 27 22.0751 27 16C27 9.92487 22.0751 5 16 5ZM3 16C3 8.8203 8.8203 3 16 3C23.1797 3 29 8.8203 29 16C29 23.1797 23.1797 29 16 29C8.8203 29 3 23.1797 3 16Z" fill="#112E49"/>
<path fill-rule="evenodd" clip-rule="evenodd" d="M15.6341 15.8432C16.0116 15.6326 16.4472 15.55 16.8755 15.6078L16.7899 16.2427L16.8755 15.6078L19.7279 15.9923L19.5946 16.9806L19.7279 15.9923C20.0047 16.0296 20.2706 16.1244 20.5085 16.2708C20.5085 16.2708 20.5085 16.2708 20.5085 16.2708L27.2942 20.4443C27.7647 20.7337 27.9115 21.3496 27.6221 21.82C27.3328 22.2904 26.7169 22.4372 26.2465 22.1479L19.4607 17.9743M19.4607 17.9743L19.5943 16.9833L19.4607 17.9743L16.6083 17.5898L14.896 21.4321L14.1074 21.0807L14.896 21.4321L17.246 23.974C17.4591 24.2044 17.6149 24.4818 17.7009 24.7837C17.7869 25.0855 17.8007 25.4034 17.741 25.7115L17.2624 28.1861C17.1575 28.7283 16.6329 29.0828 16.0907 28.9779C15.5484 28.8731 15.1939 28.3485 15.2988 27.8062L15.7774 25.3317L13.4275 22.7898L14.1541 22.118L13.4275 22.7898C13.1618 22.5026 12.9863 22.1437 12.9227 21.7576C12.859 21.3716 12.9099 20.9754 13.0692 20.618L13.9826 21.0251L13.0692 20.618L14.7815 16.7757C14.9575 16.3809 15.2566 16.0537 15.6341 15.8432M19.9846 17.1226L19.9853 17.1214L19.9846 17.1226Z" fill="#112E49"/>
<path fill-rule="evenodd" clip-rule="evenodd" d="M8.50838 6.02845C9.01705 6.24357 9.25502 6.83031 9.0399 7.33898L7.92188 9.9827L9.35823 13.8162L12.037 14.392C12.3343 14.4559 12.613 14.5867 12.8522 14.7745C13.0913 14.9623 13.2844 15.2022 13.4169 15.4759L12.5168 15.9116L13.4169 15.4759L13.8926 16.4587L15.5717 16.4587C16.124 16.4587 16.5717 16.9064 16.5717 17.4587C16.5717 18.0109 16.124 18.4587 15.5717 18.4587H13.8926C13.5168 18.4587 13.1486 18.3528 12.8302 18.1532C12.5119 17.9536 12.2561 17.6683 12.0924 17.3301L12.9925 16.8944L12.0924 17.3301L11.6167 16.3473L8.93797 15.7716C8.61017 15.7011 8.30535 15.5494 8.05153 15.3303C7.7977 15.1113 7.60302 14.8319 7.48538 14.5179L6.04902 10.6844C5.86942 10.2051 5.88045 9.67514 6.07982 9.20369L7.19785 6.55998C7.41297 6.05131 7.99971 5.81334 8.50838 6.02845Z" fill="#112E49"/>
<path fill-rule="evenodd" clip-rule="evenodd" d="M18.5696 3.52157C19.0519 3.25235 19.661 3.42502 19.9302 3.90725L21.097 5.99705C21.3175 6.39216 21.3976 6.8504 21.3241 7.29692C21.2506 7.74342 21.0278 8.1518 20.6922 8.45533L17.3283 11.4975L17.3283 11.4975C17.2141 11.6008 17.0884 11.6905 16.9537 11.7649L16.9537 11.7649L15.4234 12.61C15.1274 12.7735 14.7948 12.8592 14.4566 12.8592L11.7884 12.8592L10.7475 15.3303C10.5331 15.8392 9.94671 16.078 9.43774 15.8636C8.92877 15.6492 8.68997 15.0628 8.90437 14.5538L9.94527 12.0828C10.098 11.7201 10.3544 11.4106 10.6823 11.193C11.0101 10.9753 11.3949 10.8592 11.7884 10.8592H14.4566L15.9868 10.0142L15.9868 10.0142L19.3507 6.97198L18.184 4.88218C17.9147 4.39995 18.0874 3.79079 18.5696 3.52157Z" fill="#112E49"/>
<defs>
<linearGradient id="paint0_linear_931_1702" x1="20.3338" y1="16.5898" x2="20.3338" y2="27.9964" gradientUnits="userSpaceOnUse">
<stop stop-color="#4396D2"/>
<stop offset="1" stop-color="#1E6CB4"/>
</linearGradient>
<linearGradient id="paint1_linear_931_1702" x1="13.6363" y1="4" x2="13.6363" y2="14.9409" gradientUnits="userSpaceOnUse">
<stop stop-color="#4396D2"/>
<stop offset="1" stop-color="#1E6CB4"/>
</linearGradient>
</defs>
</svg>

<svg width="32" height="32" fill="none" xmlns="http://www.w3.org/2000/svg"><path opacity=".36" d="M16.281 27.996a12 12 0 0010.49-6.7l-6.786-4.173a1 1 0 00-.39-.14l-2.853-.384a1 1 0 00-1.047.584l-1.712 3.842a1 1 0 00.18 1.086l2.35 2.542a1 1 0 01.247.869l-.479 2.474z" fill="url(#paint0_linear_931_1702)"/><path opacity=".36" d="M8.119 6.95L7 9.596a1 1 0 00-.016.74l1.437 3.833a1 1 0 00.726.627l.678.146 1.04-2.471a1 1 0 01.923-.612h2.668a1 1 0 00.483-.125l1.53-.845a1.03 1.03 0 00.188-.133l3.363-3.042a1 1 0 00.203-1.23l-1.167-2.09A12.024 12.024 0 008.12 6.951z" fill="url(#paint1_linear_931_1702)"/><path fill-rule="evenodd" clip-rule="evenodd" d="M16 5C9.925 5 5 9.925 5 16s4.925 11 11 11 11-4.925 11-11S22.075 5 16 5zM3 16C3 8.82 8.82 3 16 3s13 5.82 13 13-5.82 13-13 13S3 23.18 3 16z" fill="#112E49"/><path fill-rule="evenodd" clip-rule="evenodd" d="M15.634 15.843a2 2 0 011.241-.235l-.085.635.085-.635 2.853.384-.133.989.133-.989c.277.038.543.132.78.279l6.786 4.173a1 1 0 11-1.047 1.704l-6.786-4.174m0 0l.133-.99-.133.99-2.853-.384-1.712 3.842-.789-.351.789.351 2.35 2.542a1.999 1.999 0 01.495 1.738l-.479 2.474a1 1 0 01-1.963-.38l.478-2.474-2.35-2.542.727-.672-.726.672a1.998 1.998 0 01-.359-2.172l.914.407-.914-.407 1.712-3.842a2 2 0 01.853-.933m4.35 1.28l.001-.002v.002z" fill="#112E49"/><path fill-rule="evenodd" clip-rule="evenodd" d="M8.508 6.028A1 1 0 019.04 7.34L7.922 9.983l1.436 3.833 2.679.576a2 2 0 011.38 1.084l-.9.436.9-.436.476.983h1.679a1 1 0 110 2h-1.68a2 2 0 01-1.8-1.129l.9-.436-.9.436-.475-.983-2.679-.575a2 2 0 01-1.453-1.254L6.05 10.684a2 2 0 01.03-1.48L7.199 6.56a1 1 0 011.31-.532z" fill="#112E49"/><path fill-rule="evenodd" clip-rule="evenodd" d="M18.57 3.522a1 1 0 011.36.385l1.167 2.09a2 2 0 01-.405 2.458l-3.364 3.043a2 2 0 01-.374.267l-1.53.845a2 2 0 01-.967.25h-2.669l-1.04 2.47a1 1 0 01-1.844-.776l1.041-2.471a1.999 1.999 0 011.843-1.224h2.669l1.53-.845 3.364-3.042-1.167-2.09a1 1 0 01.386-1.36z" fill="#112E49"/><defs><linearGradient id="paint0_linear_931_1702" x1="20.334" y1="16.59" x2="20.334" y2="27.996" gradientUnits="userSpaceOnUse"><stop stop-color="#4396D2"/><stop offset="1" stop-color="#1E6CB4"/></linearGradient><linearGradient id="paint1_linear_931_1702" x1="13.636" y1="4" x2="13.636" y2="14.941" gradientUnits="userSpaceOnUse"><stop stop-color="#4396D2"/><stop offset="1" stop-color="#1E6CB4"/></linearGradient></defs></svg>
